Newaita-dark/apps/64/ktorrent.svg

<?xml version="1.0" encoding="UTF-8"?>
<svg xmlns="http://www.w3.org/2000/svg" xmlns:xlink="http://www.w3.org/1999/xlink" width="64px" height="64px" viewBox="0 0 64 64" version="1.1">
<defs>
<radialGradient id="radial0" gradientUnits="userSpaceOnUse" cx="450.908936" cy="189.579361" fx="450.908936" fy="189.579361" r="21.166656" gradientTransform="matrix(0.000000348341,-0.156265,-0.281277,-0.000000203077,84.415651,127.190665)">
<stop offset="0" style="stop-color:rgb(0%,0%,0%);stop-opacity:0.313726;"/>
<stop offset="0.222222" style="stop-color:rgb(0%,0%,0%);stop-opacity:0.27451;"/>
<stop offset="1" style="stop-color:rgb(0%,0%,0%);stop-opacity:0;"/>
</radialGradient>
<radialGradient id="radial1" gradientUnits="userSpaceOnUse" cx="450.908936" cy="189.579361" fx="450.908936" fy="189.579361" r="21.166656" gradientTransform="matrix(-0.000000348341,0.156265,0.281277,0.000000203077,-20.909582,-15.054958)">
<stop offset="0" style="stop-color:rgb(0%,0%,0%);stop-opacity:0.313726;"/>
<stop offset="0.222222" style="stop-color:rgb(0%,0%,0%);stop-opacity:0.27451;"/>
<stop offset="1" style="stop-color:rgb(0%,0%,0%);stop-opacity:0;"/>
</radialGradient>
<radialGradient id="radial2" gradientUnits="userSpaceOnUse" cx="450.908936" cy="189.579361" fx="450.908936" fy="189.579361" r="21.166656" gradientTransform="matrix(-0.000000348341,-0.156265,0.281277,-0.000000203077,-20.909582,127.190665)">
<stop offset="0" style="stop-color:rgb(0%,0%,0%);stop-opacity:0.313726;"/>
<stop offset="0.222222" style="stop-color:rgb(0%,0%,0%);stop-opacity:0.27451;"/>
<stop offset="1" style="stop-color:rgb(0%,0%,0%);stop-opacity:0;"/>
</radialGradient>
<radialGradient id="radial3" gradientUnits="userSpaceOnUse" cx="450.908936" cy="189.579361" fx="450.908936" fy="189.579361" r="21.166656" gradientTransform="matrix(0.000000348341,0.156265,-0.281277,0.000000203077,84.415648,-15.054959)">
<stop offset="0" style="stop-color:rgb(0%,0%,0%);stop-opacity:0.313726;"/>
<stop offset="0.222222" style="stop-color:rgb(0%,0%,0%);stop-opacity:0.27451;"/>
<stop offset="1" style="stop-color:rgb(0%,0%,0%);stop-opacity:0;"/>
</radialGradient>
<filter id="alpha" filterUnits="objectBoundingBox" x="0%" y="0%" width="100%" height="100%">
  <feColorMatrix type="matrix" in="SourceGraphic" values="0 0 0 0 1 0 0 0 0 1 0 0 0 0 1 0 0 0 1 0"/>
</filter>
<mask id="mask0">
  <g filter="url(#alpha)">
<rect x="0" y="0" width="64" height="64" style="fill:rgb(0%,0%,0%);fill-opacity:0.99;stroke:none;"/>
  </g>
</mask>
<linearGradient id="linear0" gradientUnits="userSpaceOnUse" x1="960" y1="1695.118164" x2="960" y2="175.118118" gradientTransform="matrix(0.0330761,0,0,0.0330761,0,0)">
<stop offset="0" style="stop-color:rgb(25.882354%,64.705884%,96.078432%);stop-opacity:1;"/>
<stop offset="1" style="stop-color:rgb(39.215687%,70.980394%,96.470588%);stop-opacity:1;"/>
</linearGradient>
<clipPath id="clip1">
  <rect x="0" y="0" width="64" height="64"/>
</clipPath>
<g id="surface5" clip-path="url(#clip1)">
<path style=" stroke:none;fill-rule:nonzero;fill:url(#linear0);" d="M 23.816406 5.792969 C 22.347656 5.792969 21.167969 6.972656 21.167969 8.4375 L 21.167969 34.898438 L 13.230469 34.898438 C 10.773438 34.898438 9.644531 37.957031 11.507812 39.554688 L 30.03125 55.429688 C 31.023438 56.28125 32.484375 56.28125 33.476562 55.429688 L 51.996094 39.554688 C 53.863281 37.957031 52.730469 34.898438 50.277344 34.898438 L 42.335938 34.898438 L 42.335938 8.4375 C 42.335938 6.972656 41.15625 5.792969 39.691406 5.792969 Z M 23.816406 5.792969 "/>
</g>
<mask id="mask1">
  <g filter="url(#alpha)">
<rect x="0" y="0" width="64" height="64" style="fill:rgb(0%,0%,0%);fill-opacity:0.99;stroke:none;"/>
  </g>
</mask>
<clipPath id="clip2">
  <rect x="0" y="0" width="64" height="64"/>
</clipPath>
<g id="surface8" clip-path="url(#clip2)">
<path style=" stroke:none;fill-rule:nonzero;fill:rgb(100%,100%,100%);fill-opacity:0.392157;" d="M 23.816406 5.792969 C 22.347656 5.792969 21.167969 6.972656 21.167969 8.4375 L 21.167969 9.429688 C 21.167969 7.964844 22.347656 6.785156 23.816406 6.785156 L 39.691406 6.785156 C 41.15625 6.785156 42.335938 7.964844 42.335938 9.429688 L 42.335938 8.4375 C 42.335938 6.972656 41.15625 5.792969 39.691406 5.792969 Z M 13.230469 34.898438 C 11.425781 34.898438 10.335938 36.550781 10.625 38.0625 C 10.84375 36.902344 11.820312 35.890625 13.230469 35.890625 L 21.167969 35.890625 L 21.167969 34.898438 Z M 42.335938 34.898438 L 42.335938 35.890625 L 50.277344 35.890625 C 51.6875 35.890625 52.660156 36.902344 52.878906 38.0625 C 53.171875 36.550781 52.082031 34.898438 50.277344 34.898438 Z M 42.335938 34.898438 "/>
</g>
<mask id="mask2">
  <g filter="url(#alpha)">
<rect x="0" y="0" width="64" height="64" style="fill:rgb(0%,0%,0%);fill-opacity:0.99;stroke:none;"/>
  </g>
</mask>
<clipPath id="clip3">
  <rect x="0" y="0" width="64" height="64"/>
</clipPath>
<g id="surface11" clip-path="url(#clip3)">
<path style=" stroke:none;fill-rule:nonzero;fill:rgb(0%,0%,0%);fill-opacity:0.235294;" d="M 10.589844 37.324219 C 10.519531 38.113281 10.792969 38.941406 11.507812 39.554688 L 30.03125 55.429688 C 31.023438 56.28125 32.484375 56.28125 33.476562 55.429688 L 51.996094 39.554688 C 52.714844 38.941406 52.988281 38.113281 52.914062 37.324219 C 52.855469 37.957031 52.566406 38.578125 51.996094 39.066406 L 33.476562 54.945312 C 32.484375 55.792969 31.023438 55.792969 30.03125 54.945312 L 11.507812 39.066406 C 10.9375 38.578125 10.648438 37.957031 10.589844 37.324219 Z M 10.589844 37.324219 "/>
</g>
<mask id="mask3">
  <g filter="url(#alpha)">
<rect x="0" y="0" width="64" height="64" style="fill:rgb(0%,0%,0%);fill-opacity:0.99;stroke:none;"/>
  </g>
</mask>
<linearGradient id="linear1" gradientUnits="userSpaceOnUse" x1="254" y1="-126.333344" x2="254" y2="-105.166672" gradientTransform="matrix(0.125012,0,0,0.125012,0,26.877566)">
<stop offset="0" style="stop-color:rgb(11.764706%,53.333336%,89.803922%);stop-opacity:1;"/>
<stop offset="1" style="stop-color:rgb(12.941177%,58.823532%,95.294118%);stop-opacity:1;"/>
</linearGradient>
<clipPath id="clip4">
  <rect x="0" y="0" width="64" height="64"/>
</clipPath>
<g id="surface14" clip-path="url(#clip4)">
<path style=" stroke:none;fill-rule:nonzero;fill:url(#linear1);" d="M 21.167969 11.085938 L 42.335938 11.085938 L 42.335938 13.730469 L 21.167969 13.730469 Z M 21.167969 11.085938 "/>
</g>
<mask id="mask4">
  <g filter="url(#alpha)">
<rect x="0" y="0" width="64" height="64" style="fill:rgb(0%,0%,0%);fill-opacity:0.99;stroke:none;"/>
  </g>
</mask>
<linearGradient id="linear2" gradientUnits="userSpaceOnUse" x1="254" y1="-126.333344" x2="254" y2="-105.166672" gradientTransform="matrix(0.125012,0,0,0.125012,0,32.16974)">
<stop offset="0" style="stop-color:rgb(11.764706%,53.333336%,89.803922%);stop-opacity:1;"/>
<stop offset="1" style="stop-color:rgb(12.941177%,58.823532%,95.294118%);stop-opacity:1;"/>
</linearGradient>
<clipPath id="clip5">
  <rect x="0" y="0" width="64" height="64"/>
</clipPath>
<g id="surface17" clip-path="url(#clip5)">
<path style=" stroke:none;fill-rule:nonzero;fill:url(#linear2);" d="M 21.167969 16.375 L 42.335938 16.375 L 42.335938 19.023438 L 21.167969 19.023438 Z M 21.167969 16.375 "/>
</g>
<mask id="mask5">
  <g filter="url(#alpha)">
<rect x="0" y="0" width="64" height="64" style="fill:rgb(0%,0%,0%);fill-opacity:0.99;stroke:none;"/>
  </g>
</mask>
<linearGradient id="linear3" gradientUnits="userSpaceOnUse" x1="254" y1="-126.333344" x2="254" y2="-105.166672" gradientTransform="matrix(0.125012,0,0,0.125012,0,37.461912)">
<stop offset="0" style="stop-color:rgb(11.764706%,53.333336%,89.803922%);stop-opacity:1;"/>
<stop offset="1" style="stop-color:rgb(12.941177%,58.823532%,95.294118%);stop-opacity:1;"/>
</linearGradient>
<clipPath id="clip6">
  <rect x="0" y="0" width="64" height="64"/>
</clipPath>
<g id="surface20" clip-path="url(#clip6)">
<path style=" stroke:none;fill-rule:nonzero;fill:url(#linear3);" d="M 21.167969 21.667969 L 42.335938 21.667969 L 42.335938 24.316406 L 21.167969 24.316406 Z M 21.167969 21.667969 "/>
</g>
<mask id="mask6">
  <g filter="url(#alpha)">
<rect x="0" y="0" width="64" height="64" style="fill:rgb(0%,0%,0%);fill-opacity:0.99;stroke:none;"/>
  </g>
</mask>
<clipPath id="clip7">
  <rect x="0" y="0" width="64" height="64"/>
</clipPath>
<g id="surface23" clip-path="url(#clip7)">
<path style=" stroke:none;fill-rule:nonzero;fill:rgb(100%,100%,100%);fill-opacity:0.392157;" d="M 21.167969 24.316406 L 42.335938 24.316406 L 42.335938 24.976562 L 21.167969 24.976562 Z M 21.167969 24.316406 "/>
</g>
<mask id="mask7">
  <g filter="url(#alpha)">
<rect x="0" y="0" width="64" height="64" style="fill:rgb(0%,0%,0%);fill-opacity:0.99;stroke:none;"/>
  </g>
</mask>
<clipPath id="clip8">
  <rect x="0" y="0" width="64" height="64"/>
</clipPath>
<g id="surface26" clip-path="url(#clip8)">
<path style=" stroke:none;fill-rule:nonzero;fill:rgb(100%,100%,100%);fill-opacity:0.392157;" d="M 21.167969 19.023438 L 42.335938 19.023438 L 42.335938 19.683594 L 21.167969 19.683594 Z M 21.167969 19.023438 "/>
</g>
<mask id="mask8">
  <g filter="url(#alpha)">
<rect x="0" y="0" width="64" height="64" style="fill:rgb(0%,0%,0%);fill-opacity:0.99;stroke:none;"/>
  </g>
</mask>
<clipPath id="clip9">
  <rect x="0" y="0" width="64" height="64"/>
</clipPath>
<g id="surface29" clip-path="url(#clip9)">
<path style=" stroke:none;fill-rule:nonzero;fill:rgb(100%,100%,100%);fill-opacity:0.392157;" d="M 21.167969 13.730469 L 42.335938 13.730469 L 42.335938 14.390625 L 21.167969 14.390625 Z M 21.167969 13.730469 "/>
</g>
<mask id="mask9">
  <g filter="url(#alpha)">
<rect x="0" y="0" width="64" height="64" style="fill:rgb(0%,0%,0%);fill-opacity:0.99;stroke:none;"/>
  </g>
</mask>
<clipPath id="clip10">
  <rect x="0" y="0" width="64" height="64"/>
</clipPath>
<g id="surface32" clip-path="url(#clip10)">
<path style=" stroke:none;fill-rule:nonzero;fill:rgb(0%,0%,0%);fill-opacity:0.235294;" d="M 21.167969 11.085938 L 42.335938 11.085938 L 42.335938 11.746094 L 21.167969 11.746094 Z M 21.167969 11.085938 "/>
</g>
<mask id="mask10">
  <g filter="url(#alpha)">
<rect x="0" y="0" width="64" height="64" style="fill:rgb(0%,0%,0%);fill-opacity:0.99;stroke:none;"/>
  </g>
</mask>
<clipPath id="clip11">
  <rect x="0" y="0" width="64" height="64"/>
</clipPath>
<g id="surface35" clip-path="url(#clip11)">
<path style=" stroke:none;fill-rule:nonzero;fill:rgb(0%,0%,0%);fill-opacity:0.235294;" d="M 21.167969 16.375 L 42.335938 16.375 L 42.335938 17.039062 L 21.167969 17.039062 Z M 21.167969 16.375 "/>
</g>
<mask id="mask11">
  <g filter="url(#alpha)">
<rect x="0" y="0" width="64" height="64" style="fill:rgb(0%,0%,0%);fill-opacity:0.99;stroke:none;"/>
  </g>
</mask>
<clipPath id="clip12">
  <rect x="0" y="0" width="64" height="64"/>
</clipPath>
<g id="surface38" clip-path="url(#clip12)">
<path style=" stroke:none;fill-rule:nonzero;fill:rgb(0%,0%,0%);fill-opacity:0.235294;" d="M 21.167969 21.667969 L 42.335938 21.667969 L 42.335938 22.332031 L 21.167969 22.332031 Z M 21.167969 21.667969 "/>
</g>
<mask id="mask12">
  <g filter="url(#alpha)">
<rect x="0" y="0" width="64" height="64" style="fill:rgb(0%,0%,0%);fill-opacity:0.99;stroke:none;"/>
  </g>
</mask>
<clipPath id="clip13">
  <rect x="0" y="0" width="64" height="64"/>
</clipPath>
<g id="surface41" clip-path="url(#clip13)">
<path style=" stroke:none;fill-rule:nonzero;fill:rgb(12.941177%,12.941177%,12.941177%);fill-opacity:1;" d="M 23.816406 5.605469 C 22.25 5.605469 20.980469 6.871094 20.980469 8.4375 L 20.980469 34.710938 L 13.230469 34.710938 C 11.925781 34.710938 10.953125 35.53125 10.574219 36.5625 C 10.191406 37.59375 10.394531 38.847656 11.386719 39.695312 L 29.910156 55.574219 C 30.96875 56.480469 32.535156 56.480469 33.597656 55.574219 L 52.121094 39.695312 C 53.109375 38.847656 53.3125 37.59375 52.933594 36.5625 C 52.550781 35.53125 51.582031 34.710938 50.277344 34.710938 L 42.523438 34.710938 L 42.523438 8.4375 C 42.523438 6.871094 41.257812 5.605469 39.691406 5.605469 Z M 23.816406 5.980469 L 39.691406 5.980469 C 41.054688 5.980469 42.148438 7.074219 42.148438 8.4375 L 42.148438 34.898438 C 42.148438 35.003906 42.234375 35.085938 42.335938 35.085938 L 50.277344 35.085938 C 51.425781 35.085938 52.25 35.792969 52.582031 36.691406 C 52.914062 37.589844 52.75 38.664062 51.875 39.410156 L 33.351562 55.289062 C 32.429688 56.078125 31.074219 56.078125 30.152344 55.289062 L 11.628906 39.410156 C 10.757812 38.664062 10.59375 37.589844 10.925781 36.691406 C 11.257812 35.792969 12.082031 35.085938 13.230469 35.085938 L 21.167969 35.085938 C 21.273438 35.085938 21.355469 35.003906 21.355469 34.898438 L 21.355469 8.4375 C 21.355469 7.074219 22.449219 5.980469 23.816406 5.980469 Z M 23.816406 5.980469 "/>
</g>
</defs>
<g id="surface1">
<path style=" stroke:none;fill-rule:nonzero;fill:url(#radial0);" d="M 31.753906 56.066406 L 37.046875 56.066406 L 37.046875 53.421875 L 31.753906 53.421875 Z M 31.753906 56.066406 "/>
<path style=" stroke:none;fill-rule:nonzero;fill:url(#radial1);" d="M 31.753906 56.066406 L 26.460938 56.066406 L 26.460938 58.714844 L 31.753906 58.714844 Z M 31.753906 56.066406 "/>
<path style=" stroke:none;fill-rule:nonzero;fill:url(#radial2);" d="M 31.753906 56.066406 L 26.460938 56.066406 L 26.460938 53.421875 L 31.753906 53.421875 Z M 31.753906 56.066406 "/>
<path style=" stroke:none;fill-rule:nonzero;fill:url(#radial3);" d="M 31.753906 56.066406 L 37.046875 56.066406 L 37.046875 58.714844 L 31.753906 58.714844 Z M 31.753906 56.066406 "/>
<use xlink:href="#surface5" mask="url(#mask0)"/>
<use xlink:href="#surface8" mask="url(#mask1)"/>
<use xlink:href="#surface11" mask="url(#mask2)"/>
<use xlink:href="#surface14" mask="url(#mask3)"/>
<use xlink:href="#surface17" mask="url(#mask4)"/>
<use xlink:href="#surface20" mask="url(#mask5)"/>
<use xlink:href="#surface23" mask="url(#mask6)"/>
<use xlink:href="#surface26" mask="url(#mask7)"/>
<use xlink:href="#surface29" mask="url(#mask8)"/>
<use xlink:href="#surface32" mask="url(#mask9)"/>
<use xlink:href="#surface35" mask="url(#mask10)"/>
<use xlink:href="#surface38" mask="url(#mask11)"/>
<use xlink:href="#surface41" mask="url(#mask12)"/>
</g>
</svg>

<svg xmlns="http://www.w3.org/2000/svg" xmlns:xlink="http://www.w3.org/1999/xlink" width="64pt" height="64pt" viewBox="0 0 64 64"><defs><radialGradient id="s" gradientUnits="userSpaceOnUse" cx="450.909" cy="189.579" fx="450.909" fy="189.579" r="21.167" gradientTransform="matrix(0 -.15626 -.28128 0 84.416 127.19)"><stop offset="0" stop-opacity=".314"/><stop offset=".222" stop-opacity=".275"/><stop offset="1" stop-opacity="0"/></radialGradient><radialGradient id="t" gradientUnits="userSpaceOnUse" cx="450.909" cy="189.579" fx="450.909" fy="189.579" r="21.167" gradientTransform="matrix(0 .15626 .28128 0 -20.91 -15.055)"><stop offset="0" stop-opacity=".314"/><stop offset=".222" stop-opacity=".275"/><stop offset="1" stop-opacity="0"/></radialGradient><radialGradient id="u" gradientUnits="userSpaceOnUse" cx="450.909" cy="189.579" fx="450.909" fy="189.579" r="21.167" gradientTransform="matrix(0 -.15626 .28128 0 -20.91 127.19)"><stop offset="0" stop-opacity=".314"/><stop offset=".222" stop-opacity=".275"/><stop offset="1" stop-opacity="0"/></radialGradient><radialGradient id="v" gradientUnits="userSpaceOnUse" cx="450.909" cy="189.579" fx="450.909" fy="189.579" r="21.167" gradientTransform="matrix(0 .15626 -.28128 0 84.416 -15.055)"><stop offset="0" stop-opacity=".314"/><stop offset=".222" stop-opacity=".275"/><stop offset="1" stop-opacity="0"/></radialGradient><filter id="a" filterUnits="objectBoundingBox" x="0%" y="0%" width="100%" height="100%"><feColorMatrix in="SourceGraphic" values="0 0 0 0 1 0 0 0 0 1 0 0 0 0 1 0 0 0 1 0"/></filter><mask id="x"><path fill-opacity=".988" d="M0 0h64v64H0z" filter="url(#a)"/></mask><linearGradient id="c" gradientUnits="userSpaceOnUse" x1="960" y1="1695.118" x2="960" y2="175.118" gradientTransform="scale(.03308)"><stop offset="0" stop-color="#42a5f5"/><stop offset="1" stop-color="#64b5f6"/></linearGradient><clipPath id="b"><path d="M0 0h64v64H0z"/></clipPath><g id="w" clip-path="url(#b)"><path d="M23.816 5.793a2.64 2.64 0 0 0-2.648 2.644v26.461H13.23c-2.457 0-3.585 3.059-1.722 4.657L30.03 55.43a2.643 2.643 0 0 0 3.446 0l18.52-15.875c1.866-1.598.733-4.657-1.72-4.657h-7.941V8.438a2.639 2.639 0 0 0-2.645-2.645zm0 0" fill="url(#c)"/></g><mask id="z"><path fill-opacity=".988" d="M0 0h64v64H0z" filter="url(#a)"/></mask><clipPath id="d"><path d="M0 0h64v64H0z"/></clipPath><g id="y" clip-path="url(#d)"><path d="M23.816 5.793a2.64 2.64 0 0 0-2.648 2.644v.993a2.64 2.64 0 0 1 2.648-2.645h15.875a2.639 2.639 0 0 1 2.645 2.645v-.992a2.639 2.639 0 0 0-2.645-2.645zM13.23 34.898c-1.804 0-2.894 1.653-2.605 3.164.219-1.16 1.195-2.171 2.605-2.171h7.938v-.993zm29.106 0v.993h7.941c1.41 0 2.383 1.011 2.602 2.172.293-1.512-.797-3.165-2.602-3.165zm0 0" fill="#fff" fill-opacity=".392"/></g><mask id="B"><path fill-opacity=".988" d="M0 0h64v64H0z" filter="url(#a)"/></mask><clipPath id="e"><path d="M0 0h64v64H0z"/></clipPath><g id="A" clip-path="url(#e)"><path d="M10.59 37.324a2.59 2.59 0 0 0 .918 2.23L30.03 55.43a2.643 2.643 0 0 0 3.446 0l18.52-15.875a2.57 2.57 0 0 0 .917-2.23 2.579 2.579 0 0 1-.918 1.741l-18.52 15.88a2.652 2.652 0 0 1-3.445 0l-18.523-15.88a2.579 2.579 0 0 1-.918-1.742zm0 0" fill-opacity=".235"/></g><mask id="D"><path fill-opacity=".988" d="M0 0h64v64H0z" filter="url(#a)"/></mask><linearGradient id="g" gradientUnits="userSpaceOnUse" x1="254" y1="-126.333" x2="254" y2="-105.167" gradientTransform="translate(0 26.878) scale(.12501)"><stop offset="0" stop-color="#1e88e5"/><stop offset="1" stop-color="#2196f3"/></linearGradient><clipPath id="f"><path d="M0 0h64v64H0z"/></clipPath><g id="C" clip-path="url(#f)"><path d="M21.168 11.086h21.168v2.644H21.168zm0 0" fill="url(#g)"/></g><mask id="F"><path fill-opacity=".988" d="M0 0h64v64H0z" filter="url(#a)"/></mask><linearGradient id="i" gradientUnits="userSpaceOnUse" x1="254" y1="-126.333" x2="254" y2="-105.167" gradientTransform="translate(0 32.17) scale(.12501)"><stop offset="0" stop-color="#1e88e5"/><stop offset="1" stop-color="#2196f3"/></linearGradient><clipPath id="h"><path d="M0 0h64v64H0z"/></clipPath><g id="E" clip-path="url(#h)"><path d="M21.168 16.375h21.168v2.648H21.168zm0 0" fill="url(#i)"/></g><mask id="H"><path fill-opacity=".988" d="M0 0h64v64H0z" filter="url(#a)"/></mask><linearGradient id="k" gradientUnits="userSpaceOnUse" x1="254" y1="-126.333" x2="254" y2="-105.167" gradientTransform="translate(0 37.462) scale(.12501)"><stop offset="0" stop-color="#1e88e5"/><stop offset="1" stop-color="#2196f3"/></linearGradient><clipPath id="j"><path d="M0 0h64v64H0z"/></clipPath><g id="G" clip-path="url(#j)"><path d="M21.168 21.668h21.168v2.648H21.168zm0 0" fill="url(#k)"/></g><mask id="J"><path fill-opacity=".988" d="M0 0h64v64H0z" filter="url(#a)"/></mask><clipPath id="l"><path d="M0 0h64v64H0z"/></clipPath><g id="I" clip-path="url(#l)"><path d="M21.168 24.316h21.168v.66H21.168zm0 0" fill="#fff" fill-opacity=".392"/></g><mask id="L"><path fill-opacity=".988" d="M0 0h64v64H0z" filter="url(#a)"/></mask><clipPath id="m"><path d="M0 0h64v64H0z"/></clipPath><g id="K" clip-path="url(#m)"><path d="M21.168 19.023h21.168v.66H21.168zm0 0" fill="#fff" fill-opacity=".392"/></g><mask id="N"><path fill-opacity=".988" d="M0 0h64v64H0z" filter="url(#a)"/></mask><clipPath id="n"><path d="M0 0h64v64H0z"/></clipPath><g id="M" clip-path="url(#n)"><path d="M21.168 13.73h21.168v.66H21.168zm0 0" fill="#fff" fill-opacity=".392"/></g><mask id="P"><path fill-opacity=".988" d="M0 0h64v64H0z" filter="url(#a)"/></mask><clipPath id="o"><path d="M0 0h64v64H0z"/></clipPath><g id="O" clip-path="url(#o)"><path d="M21.168 11.086h21.168v.66H21.168zm0 0" fill-opacity=".235"/></g><mask id="R"><path fill-opacity=".988" d="M0 0h64v64H0z" filter="url(#a)"/></mask><clipPath id="p"><path d="M0 0h64v64H0z"/></clipPath><g id="Q" clip-path="url(#p)"><path d="M21.168 16.375h21.168v.664H21.168zm0 0" fill-opacity=".235"/></g><mask id="T"><path fill-opacity=".988" d="M0 0h64v64H0z" filter="url(#a)"/></mask><clipPath id="q"><path d="M0 0h64v64H0z"/></clipPath><g id="S" clip-path="url(#q)"><path d="M21.168 21.668h21.168v.664H21.168zm0 0" fill-opacity=".235"/></g><mask id="V"><path fill-opacity=".988" d="M0 0h64v64H0z" filter="url(#a)"/></mask><clipPath id="r"><path d="M0 0h64v64H0z"/></clipPath><g id="U" clip-path="url(#r)"><path d="M23.816 5.605a2.832 2.832 0 0 0-2.836 2.832v26.274h-7.75c-1.304 0-2.277.82-2.656 1.852-.383 1.03-.18 2.285.813 3.132l18.523 15.88a2.84 2.84 0 0 0 3.688 0l18.523-15.88c.988-.847 1.191-2.101.813-3.133-.383-1.03-1.352-1.851-2.657-1.851h-7.754V8.438a2.83 2.83 0 0 0-2.832-2.833zm0 .375h15.875a2.449 2.449 0 0 1 2.457 2.457v26.461c0 .106.086.188.188.188h7.941c1.149 0 1.973.707 2.305 1.605.332.899.168 1.973-.707 2.72L33.352 55.288c-.922.79-2.278.79-3.2 0L11.63 39.41c-.871-.746-1.035-1.82-.703-2.719.332-.898 1.156-1.605 2.304-1.605h7.938a.185.185 0 0 0 .187-.188V8.438a2.45 2.45 0 0 1 2.461-2.458zm0 0" fill="#212121"/></g></defs><path d="M31.754 56.066h5.293v-2.644h-5.293zm0 0" fill="url(#s)"/><path d="M31.754 56.066H26.46v2.649h5.293zm0 0" fill="url(#t)"/><path d="M31.754 56.066H26.46v-2.644h5.293zm0 0" fill="url(#u)"/><path d="M31.754 56.066h5.293v2.649h-5.293zm0 0" fill="url(#v)"/><use xlink:href="#w" mask="url(#x)"/><use xlink:href="#y" mask="url(#z)"/><use xlink:href="#A" mask="url(#B)"/><use xlink:href="#C" mask="url(#D)"/><use xlink:href="#E" mask="url(#F)"/><use xlink:href="#G" mask="url(#H)"/><use xlink:href="#I" mask="url(#J)"/><use xlink:href="#K" mask="url(#L)"/><use xlink:href="#M" mask="url(#N)"/><use xlink:href="#O" mask="url(#P)"/><use xlink:href="#Q" mask="url(#R)"/><use xlink:href="#S" mask="url(#T)"/><use xlink:href="#U" mask="url(#V)"/></svg>
